icons/2_Variations/Line 6 bg.var.svg

<svg width="1024" height="1024" fill="none" xmlns="http://www.w3.org/2000/svg"><g clip-path="url(#a)"><path d="M512 1024c282.77 0 512-229.23 512-512S794.77 0 512 0 0 229.23 0 512s229.23 512 512 512Z" fill="#A0A5AF"/><path d="M152.23 576.11c9.88.61 173.49 11.09 359.77 12.04 186.28-.95 349.89-11.43 359.77-12.04 19.64-2.14 24.23-10.85 24.23-24.23v-79.76c0-13.39-4.59-22.09-24.23-24.23-9.88-.61-173.49-11.09-359.77-12.04-186.28.95-349.89 11.43-359.77 12.04-19.64 2.14-24.23 10.85-24.23 24.23v79.76c0 13.38 4.59 22.09 24.23 24.23Zm679.96-53.14c-.27-5.91-12.59-8.99-27.72-8.59-15.14.4-27.14 4.11-26.86 10.02.27 5.91 12.57 8.73 27.71 8.34 15.13-.4 27.15-3.86 26.87-9.77Zm21.92-41.62c1.99-.05-9.91 16.5-9.91 16.5s-13.01-7.34-34.1-6.79c-22.58.59-40.18 6.6-39.87 18.8 12.65-5.87 24.71-8.08 41.09-8.51 26.05-.68 53.45 6.15 54.15 21.24.74 16.1-31.22 23.23-57.76 23.93-41.93 1.1-71.43-8.32-72.49-31.21-.97-20.87 31.64-35.46 71.09-36.49 15.63-.41 26.34.19 33.83 1 7.49.81 11.75 1.58 13.98 1.52l-.01.01ZM664.06 533.8h-73.15v-14.23h68.24v-13.61h-68.24v-12.63h71.92l-2.93-13.52H547.32v67.51h115l1.75-13.52h-.01Zm-147.91 16.68 13.51-3.23v-67.51h-40.73v36.93l-76.6-39.98-13.19 3.05v67.51h40.73v-35.7l76.28 38.92v.01Zm-214.52-57.13h19.19v40.29h-19.19l-1.85 13.61h85.85l-1.85-13.61h-19.37v-40.29h19.37l1.85-13.61h-85.85l1.85 13.61Zm-14.65 53.9v-18.76l-34.37 5.25h-35.19v-53.99h-43.6v67.51h113.15l.01-.01Zm403.57 28.84c-53.21 1.8-114.5 3.27-178.54 3.61-185.38-.99-340.76-11.42-350.61-12.03-19.76-1.67-24.23-3.03-24.23-24.23v-62.89c-.19-15.75.88-23.24 24.23-24.23 9.85-.61 165.23-11.04 350.61-12.03 64.26.34 125.75 1.82 179.08 3.63 15.22 40.97 13.76 87.14-.54 128.17Z" fill="#fff"/></g><defs><clipPath id="a"><path fill="#fff" d="M0 0h1024v1024H0z"/></clipPath></defs></svg>

<svg width="1024" height="1024" viewBox="0 0 1024 1024" fill="none" xmlns="http://www.w3.org/2000/svg">
<g clip-path="url(#clip0_3_152)">
<path d="M512 1024C794.77 1024 1024 794.77 1024 512C1024 229.23 794.77 0 512 0C229.23 0 0 229.23 0 512C0 794.77 229.23 1024 512 1024Z" fill="#A0A5AF"/>
<path d="M152.23 576.11C162.11 576.72 325.72 587.2 512 588.15C698.28 587.2 861.89 576.72 871.77 576.11C891.41 573.97 896 565.26 896 551.88V472.12C896 458.73 891.41 450.03 871.77 447.89C861.89 447.28 698.28 436.8 512 435.85C325.72 436.8 162.11 447.28 152.23 447.89C132.59 450.03 128 458.74 128 472.12V551.88C128 565.26 132.59 573.97 152.23 576.11ZM832.19 522.97C831.92 517.06 819.6 513.98 804.47 514.38C789.33 514.78 777.33 518.49 777.61 524.4C777.88 530.31 790.18 533.13 805.32 532.74C820.45 532.34 832.47 528.88 832.19 522.97ZM854.11 481.35C856.1 481.3 844.2 497.85 844.2 497.85C844.2 497.85 831.19 490.51 810.1 491.06C787.52 491.65 769.92 497.66 770.23 509.86C782.88 503.99 794.94 501.78 811.32 501.35C837.37 500.67 864.77 507.5 865.47 522.59C866.21 538.69 834.25 545.82 807.71 546.52C765.78 547.62 736.28 538.2 735.22 515.31C734.25 494.44 766.86 479.85 806.31 478.82C821.94 478.41 832.65 479.01 840.14 479.82C847.63 480.63 851.89 481.4 854.12 481.34L854.11 481.35ZM664.06 533.8H590.91V519.57H659.15V505.96H590.91V493.33H662.83L659.9 479.81H547.32V547.32H662.32L664.07 533.8H664.06ZM516.15 550.48L529.66 547.25V479.74H488.93V516.67L412.33 476.69L399.14 479.74V547.25H439.87V511.55L516.15 550.47V550.48ZM301.63 493.35H320.82V533.64H301.63L299.78 547.25H385.63L383.78 533.64H364.41V493.35H383.78L385.63 479.74H299.78L301.63 493.35ZM286.98 547.25V528.49L252.61 533.74H217.42V479.75H173.82V547.26H286.97L286.98 547.25ZM690.55 576.09C637.34 577.89 576.05 579.36 512.01 579.7C326.63 578.71 171.25 568.28 161.4 567.67C141.64 566 137.17 564.64 137.17 543.44V480.55C136.98 464.8 138.05 457.31 161.4 456.32C171.25 455.71 326.63 445.28 512.01 444.29C576.27 444.63 637.76 446.11 691.09 447.92C706.31 488.89 704.85 535.06 690.55 576.09Z" fill="white"/>
</g>
<defs>
<clipPath id="clip0_3_152">
<rect width="1024" height="1024" fill="white"/>
</clipPath>
</defs>
</svg>
